icons/close.svg

<svg width="24" height="24" viewBox="0 0 24 24" fill="none" xmlns="http://www.w3.org/2000/svg">
<path fill-rule="evenodd" clip-rule="evenodd" d="M18.435 19.2635C18.8256 19.654 19.4587 19.654 19.8492 19.2635C20.2398 18.8729 20.2398 18.2398 19.8492 17.8493L13.5564 11.5564L19.8493 5.26347C20.2398 4.87294 20.2398 4.23978 19.8493 3.84925C19.4588 3.45873 18.8256 3.45873 18.4351 3.84925L12.1422 10.1422L5.70711 3.70712C5.31658 3.31659 4.68342 3.31659 4.29289 3.70712C3.90237 4.09764 3.90237 4.7308 4.29289 5.12133L10.7279 11.5564L4.29292 17.9914C3.9024 18.3819 3.9024 19.0151 4.29292 19.4056C4.68345 19.7961 5.31661 19.7961 5.70714 19.4056L12.1422 12.9706L18.435 19.2635Z" fill="#333333"/>
</svg>

<svg xmlns="http://www.w3.org/2000/svg" width="24" height="24" fill="none" viewBox="0 0 24 24">
  <path fill="#333" fill-rule="evenodd" d="M18.435 19.264a1 1 0 001.414-1.415l-6.293-6.293 6.293-6.293a1 1 0 00-1.414-1.414l-6.293 6.293-6.435-6.435a1 1 0 10-1.414 1.414l6.435 6.435-6.435 6.435a1 1 0 101.414 1.415l6.435-6.435 6.293 6.293z"/>
</svg>
